assets/1. 1-F/Chess pawn/Color/Chess.Pawn-color.svg

<svg width="100%" height="100%" viewBox="0 0 32 32" fill="none" xmlns="http://www.w3.org/2000/svg">
<circle cx="16.0017" cy="6.1701" r="4.1701" fill="url(#paint0_radial_18_4063)"/>
<circle cx="16.0017" cy="6.1701" r="4.1701" fill="url(#paint1_radial_18_4063)"/>
<circle cx="16.0017" cy="6.1701" r="4.1701" fill="url(#paint2_linear_18_4063)"/>
<g filter="url(#filter0_ii_18_4063)">
<path d="M13.6111 12.9552H18.4203V16.5113C18.4203 16.5113 18.4203 17.3671 19.0541 17.9795C19.5323 18.4795 21.0248 19.9803 21.0248 19.9803C23.1333 22.1852 21.4984 26.2468 18.5166 26.2468H13.5149C10.533 26.2468 8.89813 22.1852 11.0066 19.9803C11.0066 19.9803 12.4991 18.4795 12.9773 17.9795C13.6111 17.3671 13.6111 16.5113 13.6111 16.5113V12.9552Z" fill="#29272C"/>
<path d="M13.6111 12.9552H18.4203V16.5113C18.4203 16.5113 18.4203 17.3671 19.0541 17.9795C19.5323 18.4795 21.0248 19.9803 21.0248 19.9803C23.1333 22.1852 21.4984 26.2468 18.5166 26.2468H13.5149C10.533 26.2468 8.89813 22.1852 11.0066 19.9803C11.0066 19.9803 12.4991 18.4795 12.9773 17.9795C13.6111 17.3671 13.6111 16.5113 13.6111 16.5113V12.9552Z" fill="url(#paint3_linear_18_4063)"/>
<path d="M13.6111 12.9552H18.4203V16.5113C18.4203 16.5113 18.4203 17.3671 19.0541 17.9795C19.5323 18.4795 21.0248 19.9803 21.0248 19.9803C23.1333 22.1852 21.4984 26.2468 18.5166 26.2468H13.5149C10.533 26.2468 8.89813 22.1852 11.0066 19.9803C11.0066 19.9803 12.4991 18.4795 12.9773 17.9795C13.6111 17.3671 13.6111 16.5113 13.6111 16.5113V12.9552Z" fill="url(#paint4_radial_18_4063)"/>
<path d="M13.6111 12.9552H18.4203V16.5113C18.4203 16.5113 18.4203 17.3671 19.0541 17.9795C19.5323 18.4795 21.0248 19.9803 21.0248 19.9803C23.1333 22.1852 21.4984 26.2468 18.5166 26.2468H13.5149C10.533 26.2468 8.89813 22.1852 11.0066 19.9803C11.0066 19.9803 12.4991 18.4795 12.9773 17.9795C13.6111 17.3671 13.6111 16.5113 13.6111 16.5113V12.9552Z" fill="url(#paint5_linear_18_4063)"/>
<path d="M13.6111 12.9552H18.4203V16.5113C18.4203 16.5113 18.4203 17.3671 19.0541 17.9795C19.5323 18.4795 21.0248 19.9803 21.0248 19.9803C23.1333 22.1852 21.4984 26.2468 18.5166 26.2468H13.5149C10.533 26.2468 8.89813 22.1852 11.0066 19.9803C11.0066 19.9803 12.4991 18.4795 12.9773 17.9795C13.6111 17.3671 13.6111 16.5113 13.6111 16.5113V12.9552Z" fill="url(#paint6_radial_18_4063)"/>
</g>
<path d="M13.6111 12.9552H18.4203V16.5113C18.4203 16.5113 18.4203 17.3671 19.0541 17.9795C19.5323 18.4795 21.0248 19.9803 21.0248 19.9803C23.1333 22.1852 21.4984 26.2468 18.5166 26.2468H13.5149C10.533 26.2468 8.89813 22.1852 11.0066 19.9803C11.0066 19.9803 12.4991 18.4795 12.9773 17.9795C13.6111 17.3671 13.6111 16.5113 13.6111 16.5113V12.9552Z" fill="url(#paint7_linear_18_4063)"/>
<rect x="11.2517" y="9.1593" width="9.49999" height="4" rx="2" fill="#302A36"/>
<rect x="11.2517" y="9.1593" width="9.49999" height="4" rx="2" fill="url(#paint8_radial_18_4063)"/>
<rect x="11.2517" y="9.1593" width="9.49999" height="4" rx="2" fill="url(#paint9_radial_18_4063)"/>
<rect x="11.2517" y="9.1593" width="9.49999" height="4" rx="2" fill="url(#paint10_linear_18_4063)"/>
<rect x="11.2517" y="9.1593" width="9.49999" height="4" rx="2" fill="url(#paint11_radial_18_4063)"/>
<path d="M7.6463 28.0377C7.6463 26.3809 8.98945 25.0377 10.6463 25.0377H21.3537C23.0106 25.0377 24.3537 26.3809 24.3537 28.0377V28.8584C24.3537 29.4107 23.906 29.8584 23.3537 29.8584H8.6463C8.09402 29.8584 7.6463 29.4107 7.6463 28.8584V28.0377Z" fill="#2A282C"/>
<path d="M7.6463 28.0377C7.6463 26.3809 8.98945 25.0377 10.6463 25.0377H21.3537C23.0106 25.0377 24.3537 26.3809 24.3537 28.0377V28.8584C24.3537 29.4107 23.906 29.8584 23.3537 29.8584H8.6463C8.09402 29.8584 7.6463 29.4107 7.6463 28.8584V28.0377Z" fill="url(#paint12_radial_18_4063)"/>
<path d="M7.6463 28.0377C7.6463 26.3809 8.98945 25.0377 10.6463 25.0377H21.3537C23.0106 25.0377 24.3537 26.3809 24.3537 28.0377V28.8584C24.3537 29.4107 23.906 29.8584 23.3537 29.8584H8.6463C8.09402 29.8584 7.6463 29.4107 7.6463 28.8584V28.0377Z" fill="url(#paint13_linear_18_4063)"/>
<path d="M7.6463 28.0377C7.6463 26.3809 8.98945 25.0377 10.6463 25.0377H21.3537C23.0106 25.0377 24.3537 26.3809 24.3537 28.0377V28.8584C24.3537 29.4107 23.906 29.8584 23.3537 29.8584H8.6463C8.09402 29.8584 7.6463 29.4107 7.6463 28.8584V28.0377Z" fill="url(#paint14_linear_18_4063)"/>
<g filter="url(#filter1_f_18_4063)">
<path d="M13.9361 20.9084H21.1834C21.2424 21.847 21.1834 24.0646 17.7548 23.9084C15.0657 23.7858 14.1718 21.7207 13.9361 20.9084Z" fill="url(#paint15_linear_18_4063)"/>
</g>
<g filter="url(#filter2_f_18_4063)">
<path d="M15.7799 16.9084V13.7209H17.9049V16.9084C17.9049 17.7737 18.0115 18.384 18.1203 18.7584C18.1678 18.9221 18.0205 19.1177 17.8551 19.0769C16.2516 18.6817 15.7991 17.495 15.7799 16.9084Z" fill="url(#paint16_linear_18_4063)"/>
</g>
<defs>
<filter id="filter0_ii_18_4063" x="9.55347" y="12.9552" width="12.6245" height="13.2916" filterUnits="userSpaceOnUse" color-interpolation-filters="sRGB">
<feFlood flood-opacity="0" result="BackgroundImageFix"/>
<feBlend mode="normal" in="SourceGraphic" in2="BackgroundImageFix" result="shape"/>
<feColorMatrix in="SourceAlpha" type="matrix" values="0 0 0 0 0 0 0 0 0 0 0 0 0 0 0 0 0 0 127 0" result="hardAlpha"/>
<feOffset dx="-0.5"/>
<feGaussianBlur stdDeviation="0.75"/>
<feComposite in2="hardAlpha" operator="arithmetic" k2="-1" k3="1"/>
<feColorMatrix type="matrix" values="0 0 0 0 0.360784 0 0 0 0 0.345098 0 0 0 0 0.372549 0 0 0 1 0"/>
<feBlend mode="normal" in2="shape" result="effect1_innerShadow_18_4063"/>
<feColorMatrix in="SourceAlpha" type="matrix" values="0 0 0 0 0 0 0 0 0 0 0 0 0 0 0 0 0 0 127 0" result="hardAlpha"/>
<feOffset dx="0.2"/>
<feGaussianBlur stdDeviation="0.5"/>
<feComposite in2="hardAlpha" operator="arithmetic" k2="-1" k3="1"/>
<feColorMatrix type="matrix" values="0 0 0 0 0.219608 0 0 0 0 0.219608 0 0 0 0 0.223529 0 0 0 1 0"/>
<feBlend mode="normal" in2="effect1_innerShadow_18_4063" result="effect2_innerShadow_18_4063"/>
</filter>
<filter id="filter1_f_18_4063" x="11.9361" y="18.9084" width="11.2582" height="7.00787" filterUnits="userSpaceOnUse" color-interpolation-filters="sRGB">
<feFlood flood-opacity="0" result="BackgroundImageFix"/>
<feBlend mode="normal" in="SourceGraphic" in2="BackgroundImageFix" result="shape"/>
<feGaussianBlur stdDeviation="1" result="effect1_foregroundBlur_18_4063"/>
</filter>
<filter id="filter2_f_18_4063" x="14.2799" y="12.2209" width="5.34949" height="8.36151" filterUnits="userSpaceOnUse" color-interpolation-filters="sRGB">
<feFlood flood-opacity="0" result="BackgroundImageFix"/>
<feBlend mode="normal" in="SourceGraphic" in2="BackgroundImageFix" result="shape"/>
<feGaussianBlur stdDeviation="0.75" result="effect1_foregroundBlur_18_4063"/>
</filter>
<radialGradient id="paint0_radial_18_4063" cx="0" cy="0" r="1" gradientUnits="userSpaceOnUse" gradientTransform="translate(18.5752 4.89145) rotate(139.563) scale(4.74505 4.26484)">
<stop stop-color="#645C6C"/>
<stop offset="1" stop-color="#352D3D"/>
</radialGradient>
<radialGradient id="paint1_radial_18_4063" cx="0" cy="0" r="1" gradientUnits="userSpaceOnUse" gradientTransform="translate(14.7124 8.12616) rotate(-60.2551) scale(3.29153 4.63242)">
<stop stop-color="#3A294B"/>
<stop offset="1" stop-color="#3A294B" stop-opacity="0"/>
</radialGradient>
<linearGradient id="paint2_linear_18_4063" x1="17.1306" y1="9.47657" x2="17.1306" y2="8.66004" gradientUnits="userSpaceOnUse">
<stop stop-color="#16111C"/>
<stop offset="1" stop-color="#16111C" stop-opacity="0"/>
</linearGradient>
<linearGradient id="paint3_linear_18_4063" x1="16.0157" y1="13.135" x2="16.0157" y2="13.6193" gradientUnits="userSpaceOnUse">
<stop stop-color="#241931"/>
<stop offset="1" stop-color="#241931" stop-opacity="0"/>
</linearGradient>
<radialGradient id="paint4_radial_18_4063" cx="0" cy="0" r="1" gradientUnits="userSpaceOnUse" gradientTransform="translate(14.0299 24.5959) rotate(-90) scale(2.78125 4.30307)">
<stop stop-color="#32283D"/>
<stop offset="1" stop-color="#32283D" stop-opacity="0"/>
</radialGradient>
<linearGradient id="paint5_linear_18_4063" x1="16.3111" y1="25.3303" x2="16.3111" y2="24.4397" gradientUnits="userSpaceOnUse">
<stop stop-color="#131016"/>
<stop offset="1" stop-color="#131016" stop-opacity="0"/>
</linearGradient>
<radialGradient id="paint6_radial_18_4063" cx="0" cy="0" r="1" gradientUnits="userSpaceOnUse" gradientTransform="translate(16.0157 12.9552) rotate(90) scale(3.6407 1.64208)">
<stop stop-color="#453C4F"/>
<stop offset="1" stop-color="#453C4F" stop-opacity="0"/>
</radialGradient>
<linearGradient id="paint7_linear_18_4063" x1="16.0157" y1="13.1584" x2="16.0157" y2="13.8303" gradientUnits="userSpaceOnUse">
<stop stop-color="#231830"/>
<stop offset="1" stop-color="#231830" stop-opacity="0"/>
</linearGradient>
<radialGradient id="paint8_radial_18_4063" cx="0" cy="0" r="1" gradientUnits="userSpaceOnUse" gradientTransform="translate(18.481 10.5443) rotate(90) scale(1.47603 4.20111)">
<stop stop-color="#615B67"/>
<stop offset="1" stop-color="#615B67" stop-opacity="0"/>
</radialGradient>
<radialGradient id="paint9_radial_18_4063" cx="0" cy="0" r="1" gradientUnits="userSpaceOnUse" gradientTransform="translate(14.7438 13.1593) rotate(-90) scale(2.61496 8.32231)">
<stop stop-color="#2E1E3E"/>
<stop offset="1" stop-color="#2E1E3E" stop-opacity="0"/>
</radialGradient>
<linearGradient id="paint10_linear_18_4063" x1="16.0017" y1="8.84847" x2="16.0017" y2="9.60219" gradientUnits="userSpaceOnUse">
<stop stop-color="#22182A"/>
<stop offset="1" stop-color="#22182A" stop-opacity="0"/>
</linearGradient>
<radialGradient id="paint11_radial_18_4063" cx="0" cy="0" r="1" gradientUnits="userSpaceOnUse" gradientTransform="translate(16.108 13.1593) rotate(-90) scale(0.46968 3.3125)">
<stop stop-color="#1E122A"/>
<stop offset="1" stop-color="#1E122A" stop-opacity="0"/>
</radialGradient>
<radialGradient id="paint12_radial_18_4063" cx="0" cy="0" r="1" gradientUnits="userSpaceOnUse" gradientTransform="translate(21.2486 28.5959) rotate(-180) scale(11.5625 3.75)">
<stop offset="0.248649" stop-color="#575459"/>
<stop offset="1" stop-color="#575459" stop-opacity="0"/>
</radialGradient>
<linearGradient id="paint13_linear_18_4063" x1="16.5611" y1="29.8584" x2="16.5611" y2="29.0959" gradientUnits="userSpaceOnUse">
<stop offset="0.166663" stop-color="#372447"/>
<stop offset="1" stop-color="#372447" stop-opacity="0"/>
</linearGradient>
<linearGradient id="paint14_linear_18_4063" x1="16" y1="24.821" x2="16" y2="25.7766" gradientUnits="userSpaceOnUse">
<stop stop-color="#1B181F"/>
<stop offset="1" stop-color="#1B181F" stop-opacity="0"/>
</linearGradient>
<linearGradient id="paint15_linear_18_4063" x1="19.0924" y1="20.1584" x2="12.7799" y2="23.9162" gradientUnits="userSpaceOnUse">
<stop stop-color="#59565D"/>
<stop offset="1" stop-color="#59565D" stop-opacity="0"/>
</linearGradient>
<linearGradient id="paint16_linear_18_4063" x1="17.3736" y1="18.6584" x2="19.8522" y2="17.2624" gradientUnits="userSpaceOnUse">
<stop stop-color="#59565D"/>
<stop offset="1" stop-color="#59565D" stop-opacity="0"/>
</linearGradient>
</defs>
</svg>

<svg width="100%" height="100%" viewBox="0 0 32 32" xmlns="http://www.w3.org/2000/svg"><circle cx="16.002" cy="6.17" r="4.17" fill="url(#a)"/><circle cx="16.002" cy="6.17" r="4.17" fill="url(#b)"/><circle cx="16.002" cy="6.17" r="4.17" fill="url(#c)"/><g filter="url(#d)"><path fill="#29272C" d="M13.611 12.955h4.81v3.556s0 .856.633 1.469c.478.5 1.97 2 1.97 2 2.11 2.205.474 6.267-2.507 6.267h-5.002c-2.982 0-4.617-4.062-2.508-6.267 0 0 1.492-1.5 1.97-2 .634-.613.634-1.469.634-1.469z"/><path fill="url(#e)" d="M13.611 12.955h4.81v3.556s0 .856.633 1.469c.478.5 1.97 2 1.97 2 2.11 2.205.474 6.267-2.507 6.267h-5.002c-2.982 0-4.617-4.062-2.508-6.267 0 0 1.492-1.5 1.97-2 .634-.613.634-1.469.634-1.469z"/><path fill="url(#f)" d="M13.611 12.955h4.81v3.556s0 .856.633 1.469c.478.5 1.97 2 1.97 2 2.11 2.205.474 6.267-2.507 6.267h-5.002c-2.982 0-4.617-4.062-2.508-6.267 0 0 1.492-1.5 1.97-2 .634-.613.634-1.469.634-1.469z"/><path fill="url(#g)" d="M13.611 12.955h4.81v3.556s0 .856.633 1.469c.478.5 1.97 2 1.97 2 2.11 2.205.474 6.267-2.507 6.267h-5.002c-2.982 0-4.617-4.062-2.508-6.267 0 0 1.492-1.5 1.97-2 .634-.613.634-1.469.634-1.469z"/><path fill="url(#h)" d="M13.611 12.955h4.81v3.556s0 .856.633 1.469c.478.5 1.97 2 1.97 2 2.11 2.205.474 6.267-2.507 6.267h-5.002c-2.982 0-4.617-4.062-2.508-6.267 0 0 1.492-1.5 1.97-2 .634-.613.634-1.469.634-1.469z"/></g><path fill="url(#i)" d="M13.611 12.955h4.81v3.556s0 .856.633 1.469c.478.5 1.97 2 1.97 2 2.11 2.205.474 6.267-2.507 6.267h-5.002c-2.982 0-4.617-4.062-2.508-6.267 0 0 1.492-1.5 1.97-2 .634-.613.634-1.469.634-1.469z"/><rect width="9.5" height="4" x="11.252" y="9.159" fill="#302A36" rx="2"/><rect width="9.5" height="4" x="11.252" y="9.159" fill="url(#j)" rx="2"/><rect width="9.5" height="4" x="11.252" y="9.159" fill="url(#k)" rx="2"/><rect width="9.5" height="4" x="11.252" y="9.159" fill="url(#l)" rx="2"/><rect width="9.5" height="4" x="11.252" y="9.159" fill="url(#m)" rx="2"/><path fill="#2A282C" d="M7.646 28.038a3 3 0 0 1 3-3h10.708a3 3 0 0 1 3 3v.82a1 1 0 0 1-1 1H8.646a1 1 0 0 1-1-1z"/><path fill="url(#n)" d="M7.646 28.038a3 3 0 0 1 3-3h10.708a3 3 0 0 1 3 3v.82a1 1 0 0 1-1 1H8.646a1 1 0 0 1-1-1z"/><path fill="url(#o)" d="M7.646 28.038a3 3 0 0 1 3-3h10.708a3 3 0 0 1 3 3v.82a1 1 0 0 1-1 1H8.646a1 1 0 0 1-1-1z"/><path fill="url(#p)" d="M7.646 28.038a3 3 0 0 1 3-3h10.708a3 3 0 0 1 3 3v.82a1 1 0 0 1-1 1H8.646a1 1 0 0 1-1-1z"/><g filter="url(#q)"><path fill="url(#r)" d="M13.936 20.908h7.247c.06.939 0 3.157-3.428 3-2.69-.122-3.583-2.187-3.819-3"/></g><g filter="url(#s)"><path fill="url(#t)" d="M15.78 16.908v-3.187h2.125v3.187c0 .866.107 1.476.215 1.85.048.164-.1.36-.265.319-1.603-.395-2.056-1.582-2.075-2.169"/></g><defs><linearGradient id="c" x1="17.131" x2="17.131" y1="9.477" y2="8.66" gradientUnits="userSpaceOnUse"><stop stop-color="#16111C"/><stop offset="1" stop-color="#16111C" stop-opacity="0"/></linearGradient><linearGradient id="e" x1="16.016" x2="16.016" y1="13.135" y2="13.619" gradientUnits="userSpaceOnUse"><stop stop-color="#241931"/><stop offset="1" stop-color="#241931" stop-opacity="0"/></linearGradient><linearGradient id="g" x1="16.311" x2="16.311" y1="25.33" y2="24.44" gradientUnits="userSpaceOnUse"><stop stop-color="#131016"/><stop offset="1" stop-color="#131016" stop-opacity="0"/></linearGradient><linearGradient id="i" x1="16.016" x2="16.016" y1="13.158" y2="13.83" gradientUnits="userSpaceOnUse"><stop stop-color="#231830"/><stop offset="1" stop-color="#231830" stop-opacity="0"/></linearGradient><linearGradient id="l" x1="16.002" x2="16.002" y1="8.848" y2="9.602" gradientUnits="userSpaceOnUse"><stop stop-color="#22182A"/><stop offset="1" stop-color="#22182A" stop-opacity="0"/></linearGradient><linearGradient id="o" x1="16.561" x2="16.561" y1="29.858" y2="29.096" gradientUnits="userSpaceOnUse"><stop offset=".167" stop-color="#372447"/><stop offset="1" stop-color="#372447" stop-opacity="0"/></linearGradient><linearGradient id="p" x1="16" x2="16" y1="24.821" y2="25.777" gradientUnits="userSpaceOnUse"><stop stop-color="#1B181F"/><stop offset="1" stop-color="#1B181F" stop-opacity="0"/></linearGradient><linearGradient id="r" x1="19.092" x2="12.78" y1="20.158" y2="23.916" gradientUnits="userSpaceOnUse"><stop stop-color="#59565D"/><stop offset="1" stop-color="#59565D" stop-opacity="0"/></linearGradient><linearGradient id="t" x1="17.374" x2="19.852" y1="18.658" y2="17.262" gradientUnits="userSpaceOnUse"><stop stop-color="#59565D"/><stop offset="1" stop-color="#59565D" stop-opacity="0"/></linearGradient><radialGradient id="a" cx="0" cy="0" r="1" gradientTransform="matrix(-3.61155 3.0777 -2.76622 -3.24605 18.575 4.891)" gradientUnits="userSpaceOnUse"><stop stop-color="#645C6C"/><stop offset="1" stop-color="#352D3D"/></radialGradient><radialGradient id="b" cx="0" cy="0" r="1" gradientTransform="matrix(1.63306 -2.85785 4.02207 2.29833 14.712 8.126)" gradientUnits="userSpaceOnUse"><stop stop-color="#3A294B"/><stop offset="1" stop-color="#3A294B" stop-opacity="0"/></radialGradient><radialGradient id="f" cx="0" cy="0" r="1" gradientTransform="matrix(0 -2.78125 4.30307 0 14.03 24.596)" gradientUnits="userSpaceOnUse"><stop stop-color="#32283D"/><stop offset="1" stop-color="#32283D" stop-opacity="0"/></radialGradient><radialGradient id="h" cx="0" cy="0" r="1" gradientTransform="matrix(0 3.6407 -1.64208 0 16.016 12.955)" gradientUnits="userSpaceOnUse"><stop stop-color="#453C4F"/><stop offset="1" stop-color="#453C4F" stop-opacity="0"/></radialGradient><radialGradient id="j" cx="0" cy="0" r="1" gradientTransform="matrix(0 1.47603 -4.20111 0 18.481 10.544)" gradientUnits="userSpaceOnUse"><stop stop-color="#615B67"/><stop offset="1" stop-color="#615B67" stop-opacity="0"/></radialGradient><radialGradient id="k" cx="0" cy="0" r="1" gradientTransform="matrix(0 -2.61496 8.32231 0 14.744 13.16)" gradientUnits="userSpaceOnUse"><stop stop-color="#2E1E3E"/><stop offset="1" stop-color="#2E1E3E" stop-opacity="0"/></radialGradient><radialGradient id="m" cx="0" cy="0" r="1" gradientTransform="matrix(0 -.46968 3.3125 0 16.108 13.16)" gradientUnits="userSpaceOnUse"><stop stop-color="#1E122A"/><stop offset="1" stop-color="#1E122A" stop-opacity="0"/></radialGradient><radialGradient id="n" cx="0" cy="0" r="1" gradientTransform="matrix(-11.5625 0 0 -3.75 21.249 28.596)" gradientUnits="userSpaceOnUse"><stop offset=".249" stop-color="#575459"/><stop offset="1" stop-color="#575459" stop-opacity="0"/></radialGradient><filter id="d" width="12.624" height="13.292" x="9.553" y="12.955" color-interpolation-filters="sRGB" filterUnits="userSpaceOnUse"><feFlood flood-opacity="0" result="BackgroundImageFix"/><feBlend in="SourceGraphic" in2="BackgroundImageFix" result="shape"/><feColorMatrix in="SourceAlpha" result="hardAlpha" values="0 0 0 0 0 0 0 0 0 0 0 0 0 0 0 0 0 0 127 0"/><feOffset dx="-.5"/><feGaussianBlur stdDeviation=".75"/><feComposite in2="hardAlpha" k2="-1" k3="1" operator="arithmetic"/><feColorMatrix values="0 0 0 0 0.360784 0 0 0 0 0.345098 0 0 0 0 0.372549 0 0 0 1 0"/><feBlend in2="shape" result="effect1_innerShadow_18_4063"/><feColorMatrix in="SourceAlpha" result="hardAlpha" values="0 0 0 0 0 0 0 0 0 0 0 0 0 0 0 0 0 0 127 0"/><feOffset dx=".2"/><feGaussianBlur stdDeviation=".5"/><feComposite in2="hardAlpha" k2="-1" k3="1" operator="arithmetic"/><feColorMatrix values="0 0 0 0 0.219608 0 0 0 0 0.219608 0 0 0 0 0.223529 0 0 0 1 0"/><feBlend in2="effect1_innerShadow_18_4063" result="effect2_innerShadow_18_4063"/></filter><filter id="q" width="11.258" height="7.008" x="11.936" y="18.908" color-interpolation-filters="sRGB" filterUnits="userSpaceOnUse"><feFlood flood-opacity="0" result="BackgroundImageFix"/><feBlend in="SourceGraphic" in2="BackgroundImageFix" result="shape"/><feGaussianBlur result="effect1_foregroundBlur_18_4063" stdDeviation="1"/></filter><filter id="s" width="5.349" height="8.362" x="14.28" y="12.221" color-interpolation-filters="sRGB" filterUnits="userSpaceOnUse"><feFlood flood-opacity="0" result="BackgroundImageFix"/><feBlend in="SourceGraphic" in2="BackgroundImageFix" result="shape"/><feGaussianBlur result="effect1_foregroundBlur_18_4063" stdDeviation=".75"/></filter></defs></svg>
